icon/pk/world.svg

<svg viewBox="0 0 48 48" fill="none" xmlns="http://www.w3.org/2000/svg" height="1em" width="1em">
  <path d="M24 44C35.0457 44 44 35.0457 44 24C44 12.9543 35.0457 4 24 4C12.9543 4 4 12.9543 4 24C4 35.0457 12.9543 44 24 44Z" stroke="black" stroke-width="4"/>
  <path d="M4 20.8404C7.01485 19.4168 9.24466 19.2185 10.6894 20.2454C12.8566 21.7859 13.1283 28.064 18.0575 25.0635C22.9867 22.063 15.9467 20.8404 17.475 16.4939C19.0033 12.1474 24.0083 15.5237 24.5059 10.7627C24.8375 7.58862 21.0408 6.37413 13.1156 7.11921" stroke="black" stroke-width="4"/>
  <path d="M36.0001 8C30.2857 12.9886 28.2899 16.0011 30.0127 17.0373C32.5968 18.5917 33.6933 16.4033 36.8467 17.0373C40.0001 17.6714 39.3173 21.9457 37.6587 21.9457C36.0001 21.9457 27.41 20.8518 27.8427 25.865C28.2753 30.8781 33.4422 31.6203 33.4422 34.4211C33.4422 36.2883 32.299 39.146 30.0127 42.9942" stroke="black" stroke-width="4" stroke-linecap="round"/>
  <path d="M6.10449 32.9264C7.01598 32.5288 7.70115 32.2374 8.15999 32.052C12.0071 30.4978 14.8617 30.1314 16.7236 30.953C20.0161 32.4059 18.7503 35.3401 19.7816 36.4211C20.8128 37.5021 23.388 37.1876 23.388 39.244C23.388 40.615 22.9275 42.1637 22.0065 43.8901" stroke="black" stroke-width="4" stroke-linecap="round"/>
</svg>

<svg width="48" height="48" fill="none" xmlns="http://www.w3.org/2000/svg"><path d="M24 44c11.046 0 20-8.954 20-20S35.046 4 24 4 4 12.954 4 24s8.954 20 20 20Z" stroke="#000" stroke-width="4"/><path d="M4 20.84c3.015-1.423 5.245-1.622 6.69-.595 2.167 1.54 2.438 7.819 7.368 4.819 4.929-3.001-2.111-4.224-.583-8.57 1.528-4.347 6.533-.97 7.03-5.731.332-3.174-3.464-4.389-11.39-3.644" stroke="#000" stroke-width="4"/><path d="M36 8c-5.714 4.989-7.71 8.001-5.987 9.037 2.584 1.555 3.68-.634 6.834 0 3.153.634 2.47 4.909.812 4.909-1.659 0-10.249-1.094-9.816 3.919.432 5.013 5.6 5.755 5.6 8.556 0 1.867-1.144 4.725-3.43 8.573M6.104 32.926a89.421 89.421 0 0 1 2.056-.874c3.847-1.554 6.702-1.92 8.564-1.099 3.292 1.453 2.026 4.387 3.058 5.468 1.03 1.081 3.606.767 3.606 2.823 0 1.371-.46 2.92-1.382 4.646" stroke="#000" stroke-width="4" stroke-linecap="round"/></svg>
